X:1926
T:Bourre musse
C:trad.
N:Franc
A:Massif Central
O:France
M:3/8
L:1/8
Q:1/4=115
K:G
D|GAB|AGF|E/2F/2GE|A2D|A2B|A2d|d/2c/2BA|BGD|
GAB|AGF|E/2F/2GE|A2D|A2B|A2d|d/2c/2BA|G2D|
E/2E/2ED|G2D|E/2E/2ED|G2D|G2A|BGB|A/2G/2FA|G2D|
E/2E/2ED|G2D|E/2E/2ED|G2D|G2A|BGB|A/2G/2FA|G2||
